logos/svelte-kit.svg

<?xml version="1.0" encoding="UTF-8"?>
<svg width="512px" height="92px" viewBox="0 0 512 92" version="1.1" xmlns="http://www.w3.org/2000/svg" preserveAspectRatio="xMidYMid">
    <title>SvelteKit</title>
    <g>
        <path d="M428.990414,70.1906599 L415.260175,44.6808956 L406.616513,55.1362266 L406.616513,70.1906599 L399.368203,70.1906599 L399.368203,21.4007513 L406.616513,21.4007513 L406.616513,45.0293249 L425.435782,21.4007513 L433.799719,21.4007513 L420.140639,38.5473959 L437.495032,70.1906599 L428.990414,70.1906599 Z M453.175166,70.1906599 L453.175166,21.4007513 L460.423475,21.4007513 L460.423475,70.1906599 L453.175166,70.1906599 Z M498.200239,28.370972 L498.200239,70.1906599 L490.951112,70.1906599 L490.951112,28.370972 L477.151351,28.370972 L477.151351,21.4007513 L512,21.4007513 L512,28.370972 L498.200239,28.370972 Z" fill="#8D8D93"></path>
        <path d="M122.204193,71.0265629 C118.229539,71.1265681 114.317706,70.021081 110.9833,67.8555297 C107.868001,65.8009189 105.554433,62.7370512 104.431031,59.1783329 L111.261389,56.6689881 C112.208803,58.8537424 113.755759,60.7254034 115.723082,62.0671876 C117.72037,63.4055016 120.080126,64.0989262 122.483918,64.0538886 C124.794604,64.1745825 127.074866,63.4843128 128.930677,62.1023576 C130.567527,60.7276505 131.458978,58.6606375 131.33533,56.5266719 C131.344585,55.5459678 131.117333,54.5774796 130.672823,53.70325 C130.286313,52.9211837 129.780834,52.2038013 129.174414,51.5766865 C128.407627,50.8783225 127.537796,50.3022975 126.595547,49.8688925 C125.433026,49.2892677 124.468711,48.8478694 123.702603,48.5446978 C122.936495,48.2415262 121.809689,47.8350254 120.322185,47.3251955 C118.463895,46.6746852 117.070179,46.1637647 116.141034,45.792434 C114.882415,45.256699 113.66005,44.6395055 112.481709,43.9447775 C111.21342,43.2720472 110.060434,42.4015097 109.066121,41.3659104 C108.205816,40.355407 107.511986,39.214301 107.010716,37.9854924 C105.03508,33.1814138 106.352581,27.6521946 110.282352,24.2552538 C113.070331,21.7928024 116.856977,20.5613041 121.64229,20.5607588 C125.638593,20.5607588 128.926315,21.4435552 131.505455,23.2091482 C134.008884,24.873837 135.846874,27.3661846 136.697541,30.249709 L130.007045,32.4793289 C129.33485,30.9693244 128.199633,29.7123641 126.765672,28.8903442 C125.031527,27.927818 123.067321,27.4574832 121.085294,27.5301615 C119.141589,27.4188509 117.216218,27.9584727 115.613483,29.0637409 C114.285357,30.0935184 113.543928,31.7070737 113.627599,33.3855721 C113.639387,34.6679237 114.196833,35.8845469 115.160361,36.73082 C116.086496,37.6429209 117.173567,38.3755846 118.366564,38.8917356 C119.483283,39.3563079 121.179626,39.9833715 123.455594,40.7729264 C124.848221,41.2849374 125.881785,41.6682641 126.556287,41.9229064 C127.23079,42.1775488 128.218278,42.6072236 129.518754,43.211931 C130.561381,43.6730483 131.563786,44.2202127 132.515572,44.8477491 C133.367873,45.460559 134.182612,46.1239862 134.955395,46.8344501 C135.795808,47.5630823 136.513798,48.4219085 137.081958,49.3781471 C137.623304,50.3697701 138.044238,51.4225181 138.335813,52.5140103 C138.691764,53.7964724 138.867933,55.1221449 138.859579,56.4530601 C138.859579,61.0071775 137.302521,64.5732608 134.189014,67.15131 C131.075507,69.7293592 127.080567,71.0211102 122.204193,71.0265629 Z M166.880838,70.1906599 L150.152962,21.4007513 L157.959904,21.4007513 L169.041753,55.4143156 C169.654075,57.2438484 170.16603,59.1054546 170.575333,60.9908193 C170.983091,59.1050754 171.495069,57.2433849 172.108912,55.4143156 L183.050899,21.4007513 L190.7875,21.4007513 L174.129147,70.1906599 L166.880838,70.1906599 Z M205.563026,70.1906599 L205.563026,21.4007513 L235.812573,21.4007513 L235.812573,28.2319274 L212.812154,28.2319274 L212.812154,41.6137368 L227.658021,41.6137368 L227.658021,48.4449129 L212.812154,48.4449129 L212.812154,63.3594838 L237.349424,63.3594838 L237.349424,70.1906599 L205.563026,70.1906599 Z M255.815356,70.1906599 L255.815356,21.4007513 L263.065302,21.4007513 L263.065302,63.2204393 L286.901624,63.2204393 L286.901624,70.1906599 L255.815356,70.1906599 Z M314.222239,28.370972 L314.222239,70.1906599 L306.973111,70.1906599 L306.973111,28.370972 L293.173351,28.370972 L293.173351,21.4007513 L328.022818,21.4007513 L328.022818,28.370972 L314.222239,28.370972 Z M343.005275,70.1906599 L343.005275,21.4007513 L373.254822,21.4007513 L373.254822,28.2319274 L350.256857,28.2319274 L350.256857,41.6137368 L365.101905,41.6137368 L365.101905,48.4449129 L350.256857,48.4449129 L350.256857,63.3594838 L374.794127,63.3594838 L374.794127,70.1906599 L343.005275,70.1906599 Z" fill="#4A4A55"></path>
        <g>
            <path d="M71.3662407,12.1215736 C62.8599869,-0.0530021121 46.0593178,-3.66407041 33.9125511,4.07743841 L12.5798481,17.6743579 C6.75224647,21.3402051 2.73831157,27.291185 1.52253617,34.0677083 C0.50491691,39.7125268 1.39918803,45.5355069 4.06377948,50.6148255 C2.2373614,53.3847157 0.99191867,56.4963748 0.402818733,59.761502 C-0.82510444,66.667989 0.780799164,73.7779525 4.85796914,79.4861958 C13.3642229,91.6624073 30.1657099,95.2718398 42.3108408,87.530331 L63.6443617,73.9334115 C69.4720356,70.2676389 73.4859945,64.3166235 74.7016736,57.5400612 C75.7187807,51.8950573 74.8248408,46.0720719 72.1612482,40.992126 C73.9867248,38.2222138 75.2315817,35.1109063 75.8205732,31.8462674 C77.0494402,24.9397587 75.4434543,17.8294309 71.3654228,12.1215736" fill="#FF3E00"></path>
            <path d="M31.8285189,80.6320864 C24.9520259,82.4195363 17.6905969,79.7278082 13.6406761,73.8900624 C11.1892261,70.4579178 10.2234068,66.1830767 10.9612062,62.0303817 C11.0848147,61.355531 11.2550755,60.6900651 11.4707635,60.0387732 L11.8723568,58.8119097 L12.9659012,59.6142784 C15.4890693,61.4694822 18.3105092,62.8802022 21.3085731,63.7856144 L22.101127,64.0260796 L22.0283331,64.8178156 C21.9312273,65.9435664 22.236072,67.0673189 22.8887734,67.9896667 C24.1082597,69.7495826 26.2965987,70.5612277 28.3687638,70.0221706 C28.8315973,69.8990945 29.272908,69.706021 29.6774182,69.4496343 L51.0117569,55.8486253 C52.0670799,55.1839599 52.7942986,54.1061922 53.015634,52.8787977 C53.2366723,51.6269543 52.9455024,50.3387928 52.2075399,49.3037174 C50.9878745,47.543983 48.8000145,46.7318624 46.7275495,47.2695777 C46.2646693,47.3925202 45.8233388,47.5856023 45.4188951,47.842114 L37.2774288,53.0317467 C35.9378079,53.8830248 34.4759612,54.5245824 32.942511,54.934203 C26.0660179,56.721653 18.804589,54.0299248 14.7546682,48.192179 C12.3025016,44.7603484 11.336344,40.4853149 12.0743804,36.3324983 C12.8076209,32.2570697 15.223972,28.6791599 18.7305239,26.4766947 L40.0624089,12.8805931 C41.4016624,12.0280479 42.8635811,11.3856312 44.3973267,10.975683 C51.2738324,9.18798255 58.5354025,11.879763 62.5851695,17.7177071 C65.0369055,21.1497307 66.003022,25.4245822 65.2654573,29.5773878 C65.1401407,30.25325 64.9687988,30.9197617 64.7526284,31.5722679 L64.3510351,32.7991314 L63.2583086,31.9983984 C60.7352831,30.1429614 57.9138016,28.7322206 54.9156367,27.8270625 L54.1222649,27.5865972 L54.1958767,26.7948613 C54.2919116,25.6692067 53.9871651,24.5458161 53.3354364,23.6230101 C52.1165483,21.8647637 49.9304204,21.0533331 47.8595356,21.5905062 C47.3966766,21.7135096 46.9553551,21.9065877 46.5508812,22.1630425 L25.2140887,35.7591441 C24.1589049,36.42342 23.4319047,37.5010069 23.2110295,38.7281538 C22.9889178,39.9800496 23.2795365,41.2686755 24.0174878,42.304052 C25.237307,44.0635883 27.4250259,44.8756565 29.4974782,44.3381918 C29.9602063,44.2148138 30.4014724,44.0217599 30.8061326,43.7656554 L38.9459631,38.5784765 C40.2850656,37.7258411 41.7470415,37.0836751 43.2808809,36.6743843 C50.1552428,34.8874685 57.4145292,37.577375 61.4646341,43.4123187 C63.9168008,46.8441494 64.8829584,51.1191829 64.144922,55.2719995 C63.4133177,59.347181 60.9995683,62.9259431 57.4953217,65.1310747 L36.1634367,78.7271763 C34.8242501,79.5798468 33.3623116,80.2222722 31.8285189,80.6320864" fill="#FFFFFF"></path>
        </g>
    </g>
</svg>

<svg preserveAspectRatio="xMidYMid" viewBox="0 0 512 92" xmlns="http://www.w3.org/2000/svg">
  <path fill="#8D8D93" d="m428.99 70.19-13.73-25.51-8.643 10.456v15.055h-7.249V21.4h7.249v23.628L425.436 21.4h8.364l-13.66 17.146 17.355 31.644h-8.505Zm24.185 0V21.4h7.248v48.79h-7.248ZM498.2 28.372v41.82h-7.249V28.37h-13.8V21.4H512v6.97h-13.8Z"/>
  <path fill="#4A4A55" d="M122.204 71.027a19.692 19.692 0 0 1-11.22-3.171 16.257 16.257 0 0 1-6.553-8.678l6.83-2.509a12.604 12.604 0 0 0 4.462 5.398 11.75 11.75 0 0 0 6.76 1.987 9.933 9.933 0 0 0 6.448-1.952 6.77 6.77 0 0 0 2.404-5.575 6.1 6.1 0 0 0-.662-2.824 8.436 8.436 0 0 0-1.499-2.126 10.095 10.095 0 0 0-2.578-1.708c-1.163-.58-2.127-1.021-2.893-1.324a83.322 83.322 0 0 0-3.38-1.22c-1.86-.65-3.253-1.161-4.182-1.533a31.483 31.483 0 0 1-3.66-1.847 13.514 13.514 0 0 1-3.415-2.58 12.495 12.495 0 0 1-2.055-3.38 12.077 12.077 0 0 1 3.271-13.73c2.788-2.462 6.575-3.694 11.36-3.694 3.997 0 7.284.883 9.863 2.648a12.807 12.807 0 0 1 5.193 7.04l-6.691 2.23a7.787 7.787 0 0 0-3.241-3.589 10.883 10.883 0 0 0-5.68-1.36 8.757 8.757 0 0 0-5.473 1.534 5.145 5.145 0 0 0-1.985 4.322 4.507 4.507 0 0 0 1.532 3.345 10.526 10.526 0 0 0 3.207 2.16c1.116.465 2.813 1.092 5.089 1.882 1.392.512 2.426.895 3.1 1.15.675.255 1.662.684 2.963 1.289a20.53 20.53 0 0 1 2.997 1.636 26.227 26.227 0 0 1 2.44 1.986c.84.73 1.558 1.588 2.126 2.544a14.24 14.24 0 0 1 1.254 3.136 14.39 14.39 0 0 1 .524 3.94c0 4.553-1.557 8.12-4.671 10.697-3.113 2.578-7.108 3.87-11.985 3.876Zm44.677-.836L150.153 21.4h7.807l11.082 34.013a52.993 52.993 0 0 1 1.533 5.577c.408-1.886.92-3.748 1.534-5.577L183.051 21.4h7.737l-16.659 48.79h-7.248Zm38.682 0V21.4h30.25v6.83h-23v13.383h14.845v6.83h-14.846V63.36h24.537v6.832h-31.786Zm50.252 0V21.4h7.25v41.82h23.837v6.97h-31.087Zm58.407-41.82v41.82h-7.249V28.37h-13.8V21.4h34.85v6.97h-13.8Zm28.783 41.82V21.4h30.25v6.83h-22.998v13.383h14.845v6.83h-14.845V63.36h24.537v6.832h-31.789Z"/>
  <path fill="#FF3E00" d="M71.366 12.122C62.86-.053 46.06-3.664 33.913 4.077L12.58 17.674A24.473 24.473 0 0 0 1.523 34.068a25.776 25.776 0 0 0 2.54 16.547 24.527 24.527 0 0 0-3.66 9.147 26.081 26.081 0 0 0 4.455 19.724c8.506 12.176 25.308 15.786 37.453 8.044l21.333-13.597A24.472 24.472 0 0 0 74.702 57.54a25.788 25.788 0 0 0-2.54-16.548 24.537 24.537 0 0 0 3.659-9.146 26.073 26.073 0 0 0-4.456-19.724"/>
  <path fill="#FFF" d="M31.829 80.632A16.947 16.947 0 0 1 13.64 73.89a15.684 15.684 0 0 1-2.68-11.86c.124-.674.294-1.34.51-1.991l.401-1.227 1.094.802a27.509 27.509 0 0 0 8.343 4.172l.792.24-.073.792a4.78 4.78 0 0 0 .86 3.172 5.104 5.104 0 0 0 5.48 2.032 4.701 4.701 0 0 0 1.31-.572l21.334-13.601a4.441 4.441 0 0 0 2.004-2.97 4.739 4.739 0 0 0-.808-3.575 5.107 5.107 0 0 0-5.48-2.034 4.692 4.692 0 0 0-1.31.572l-8.14 5.19a15.579 15.579 0 0 1-4.335 1.902 16.947 16.947 0 0 1-18.188-6.742 15.68 15.68 0 0 1-2.68-11.86 14.716 14.716 0 0 1 6.656-9.855L40.062 12.88a15.55 15.55 0 0 1 4.335-1.905 16.946 16.946 0 0 1 18.188 6.742 15.684 15.684 0 0 1 2.68 11.86 15.093 15.093 0 0 1-.512 1.994L64.35 32.8l-1.093-.8a27.495 27.495 0 0 0-8.342-4.172l-.794-.24.074-.792a4.792 4.792 0 0 0-.86-3.172 5.104 5.104 0 0 0-5.476-2.032 4.696 4.696 0 0 0-1.31.572L25.215 35.759a4.437 4.437 0 0 0-2.003 2.97 4.736 4.736 0 0 0 .806 3.575 5.108 5.108 0 0 0 5.48 2.034 4.722 4.722 0 0 0 1.31-.572l8.139-5.188a15.522 15.522 0 0 1 4.335-1.904 16.945 16.945 0 0 1 18.184 6.738 15.68 15.68 0 0 1 2.68 11.86 14.722 14.722 0 0 1-6.65 9.86L36.163 78.726a15.54 15.54 0 0 1-4.334 1.905"/>
</svg>
